icons/lines/user-edit.svg

<svg xmlns="http://www.w3.org/2000/svg" width="24" height="24" viewBox="0 0 24 24" fill="none" stroke="currentColor" stroke-width="2" stroke-linecap="round" stroke-linejoin="round" >
  <path d="M12 12C14.7614 12 17 9.76142 17 7C17 4.23858 14.7614 2 12 2C9.23858 2 7 4.23858 7 7C7 9.76142 9.23858 12 12 12Z"/>
  <path d="M19.2101 15.74L15.67 19.2801C15.53 19.4201 15.4 19.68 15.37 19.87L15.18 21.22C15.11 21.71 15.45 22.05 15.94 21.98L17.29 21.79C17.48 21.76 17.75 21.63 17.88 21.49L21.42 17.95C22.03 17.34 22.32 16.63 21.42 15.73C20.53 14.84 19.8201 15.13 19.2101 15.74Z" stroke-miterlimit="10"/>
  <path d="M18.7002 16.25C19.0002 17.33 19.8402 18.17 20.9202 18.47" stroke-miterlimit="10"/>
  <path d="M3.41016 22C3.41016 18.13 7.26018 15 12.0002 15C13.0402 15 14.0402 15.15 14.9702 15.43"/>
  </svg>

<svg xmlns="http://www.w3.org/2000/svg" width="24" height="24" viewBox="0 0 24 24" fill="none" stroke="currentColor" stroke-width="2" stroke-linecap="round" stroke-linejoin="round">
  <path d="M15.67 19.28a1.23 1.23 0 0 0-.3.59l-.19 1.35c-.07.49.27.83.76.76l1.35-.19a1.2 1.2 0 0 0 .59-.3l3.54-3.54c.61-.61.9-1.32 0-2.22-.89-.89-1.6-.6-2.21.01z" />
  <path d="M18.7 16.25a3.19 3.19 0 0 0 2.22 2.22" />
  <path d="M3.41 22c0-3.87 3.85-7 8.59-7a10.3 10.3 0 0 1 2.97.43" />
  <circle cx="12" cy="7" r="5" />
</svg>
